X: 1
T: Rambling Sailor, The
M: 4/4
L: 1/8
R: reel
K: Cmaj
cAAc BGAB|c2GE FEDG|~c3G AcGE|FEDE FGAB|
cAAc BGAB|c2GE FEDG|CE~E2 CEGE|FGAB c2cB|
cGcd edef|~g3a gfed|cGcd efeG|deed cGAB|
cGcd edef|~g3a gfed|~c3G AcGE|FEDE FGAB|
cded ~c3G|AcGE FEDG|cded cdef|~g3a gfed|
cded ~c3G|AcGE FEDG|CE~E2 CEGE|FGAB c2cB|
